build/images/icons/phone.svg

<svg width="24" height="24" viewBox="0 0 24 24" fill="none" xmlns="http://www.w3.org/2000/svg">
<path d="M20.3905 16.8569C20.3505 16.6092 20.1952 16.3975 19.9626 16.2717L16.5222 14.2447L16.4939 14.2289C16.3496 14.1567 16.1903 14.1197 16.029 14.1209C15.7408 14.1209 15.4655 14.2301 15.2745 14.4216L14.259 15.4375C14.2156 15.4788 14.074 15.5385 14.031 15.5407C14.0193 15.5397 12.8495 15.4555 10.696 13.3017C8.5463 11.1525 8.4551 9.97919 8.45438 9.97919C8.45558 9.91919 8.51462 9.77807 8.55662 9.73439L9.42254 8.86871C9.72758 8.56295 9.81902 8.05607 9.63806 7.66343L7.72574 4.06511C7.58678 3.77903 7.31678 3.60239 7.01726 3.60239C6.80534 3.60239 6.60086 3.69023 6.44102 3.84983L4.08062 6.20495C3.8543 6.43007 3.65942 6.82367 3.61694 7.14047C3.5963 7.29191 3.1775 10.9068 8.1335 15.8635C12.3409 20.0705 15.6217 20.3973 16.5277 20.3973C16.6381 20.3988 16.7484 20.3931 16.858 20.3803C17.1738 20.3381 17.5669 20.1437 17.7918 19.9183L20.1503 17.5601C20.3428 17.3666 20.4306 17.111 20.3905 16.8569Z" fill="black"/>
</svg>

<svg width="24" height="24" viewBox="0 0 24 24" fill="none" xmlns="http://www.w3.org/2000/svg"><path d="M20.39 16.857a.813.813 0 00-.427-.585l-3.44-2.027-.03-.016a1.022 1.022 0 00-.464-.108c-.288 0-.563.11-.755.3l-1.015 1.017a.594.594 0 01-.228.103c-.012-.001-1.181-.085-3.335-2.24-2.15-2.149-2.24-3.322-2.242-3.322a.542.542 0 01.103-.245l.866-.865c.305-.306.396-.813.215-1.206L7.726 4.065a.79.79 0 00-.709-.463.815.815 0 00-.576.248l-2.36 2.355a1.807 1.807 0 00-.464.935c-.02.152-.44 3.767 4.517 8.724 4.207 4.206 7.488 4.533 8.394 4.533.11.002.22-.004.33-.017.316-.042.709-.236.934-.462l2.358-2.358a.813.813 0 00.24-.703z" fill="#000"/></svg>
